ui/StatusQ/src/assets/img/icons/linkPreviewThumbnails/tenor.svg

<svg fill="none" height="40" viewBox="0 0 40 40" width="40" xmlns="http://www.w3.org/2000/svg" xmlns:xlink="http://www.w3.org/1999/xlink"><clipPath id="a"><path d="m5.71387 16h28.5714v8h-28.5714z"/></clipPath><rect fill="#fff" height="40" rx="20" width="40"/><g clip-path="url(#a)" clip-rule="evenodd" fill="#007add" fill-rule="evenodd"><path d="m11.4595 21.2914c.043.3221.136.6103.3007.8698.3866.6103.9485.9002 1.668.8948.5906-.0036 1.0971-.2183 1.5338-.6121.2291-.2076.5512-.1682.7123.0806.1163.1789.0931.3955-.068.5566-.4886.4886-1.0703.7928-1.7593.8769-.451.0555-.9002.0448-1.3387-.0912-.9987-.3097-1.6626-.9719-1.9579-1.9669-.3455-1.1687-.1611-2.2551.6532-3.1893.553-.6318 1.2689-.9324 2.1119-.9181.7266.0125 1.3601.2595 1.8702.7875.4242.4384.6586.9736.766 1.5677.0412.2255.0591.4546.0698.6837.0125.2524-.1843.4492-.4367.4618-.0358.0017-.0716 0-.1074 0h-3.8908c-.0358-.0018-.0734-.0018-.1271-.0018zm3.4935-.9003c-.0268-.2326-.093-.4474-.1807-.6568-.5226-1.2295-1.881-1.2617-2.579-.6622-.3669.315-.5834.7177-.6908 1.183-.0108.043-.0143.0859-.0233.136z"/><path d="m23.1924 20.8548c.0018-1.5821 1.2277-3.0693 3.1033-3.0657 1.7486.0018 3.0891 1.3566 3.0855 3.1176-.0036 1.7307-1.3709 3.0801-3.123 3.0819-1.6877 0-3.0694-1.4103-3.0658-3.1338zm5.1293.0824c-.009-.6139-.1861-1.1258-.5745-1.5589-.7928-.8859-2.2407-.8519-3.0013.0609-.6336.7606-.6783 2.1029.0572 2.9297.6551.7374 1.8327.8895 2.6345.3168.6103-.4367.8662-1.0541.8841-1.7485z"/><path d="m18.0582 18.6588c.1128-.1074.204-.1987.2989-.2846.4582-.4188 1.0058-.5906 1.6161-.5852.4814.0054.9342.1127 1.3351.3919.4976.3472.7678.8394.8734 1.4246.034.1898.0519.3848.0537.5781.0054 1.0953.0018 2.1888.0018 3.2841 0 .2094-.1325.4081-.3275.4797-.2041.0751-.3956.0447-.5531-.1128-.1109-.1091-.1592-.247-.1592-.4044.0018-1.0148.0053-2.0278-.0036-3.0426-.0018-.2004-.0304-.4062-.0788-.5995-.1521-.5924-.5762-.9521-1.183-1.0219-.4313-.0501-.8411.0179-1.2009.2792-.4778.3472-.6693.8411-.6711 1.4138-.0036.9987 0 1.9991-.0018 2.9978 0 .383-.3722.6318-.7266.4868-.1879-.077-.315-.281-.315-.5101v-1.5839-3.5346c0-.2023.0931-.3562.2649-.4564.1772-.1038.3615-.0984.5351.0107.1485.0949.238.2327.2416.4152.0018.1182 0 .2327 0 .3741z"/><path d="m8.06052 17.911h.11633 1.28859c.19329 0 .35078.0626.451.2362.16646.2917-.00357.6443-.33646.6944-.0519.0072-.10738.009-.16107.009h-1.24385-.11454v.1002 3.1946c0 .2148.034.4206.17897.596.11812.1432.2774.204.451.2309.25951.0411.51723.0196.76958-.0591.23982-.077.47606.0304.55663.2541.0823.2273-.03404.451-.25596.5584-.30067.1468-.61566.2112-.94855.2291-.86264.043-1.63758-.5834-1.76823-1.4389-.0179-.111-.02326-.2255-.02326-.3383-.00179-1.0648-.00179-2.1297-.00179-3.1946v-.1235c-.03938-.0018-.07159-.0054-.10202-.0054-.19687 0-.39373.0036-.5906-.0017-.32215-.009-.52975-.2506-.48143-.5549.034-.2147.22908-.3758.47427-.383.19329-.0053.38837-.0017.58166-.0017.11812 0 .11812 0 .11812-.1235v-1.2439c0-.3042.22013-.5369.51364-.5405s.52439.2309.52618.5387c.00179.417 0 .8358 0 1.2528.00179.034.00179.0698.00179.1146z"/><path d="m31.4612 19.0441c.1539-.1754.2899-.349.4474-.5029.3598-.3508.7821-.596 1.2797-.6944.1503-.0305.3078-.0376.4617-.0305.2917.0161.5101.2595.5101.5459 0 .2828-.2219.5226-.5101.5494-.213.0197-.4295.0233-.6389.068-.5745.1235-.9808.4707-1.2421.9915-.229.4546-.306.945-.3078 1.4479-.0036.6712 0 1.3423 0 2.0134 0 .3114-.2291.5531-.5244.5513-.2971-.0018-.5208-.2327-.5208-.5441v-5.1347c0-.2326.1647-.4438.3866-.4993.2434-.0609.4796.0394.5852.2631.0412.0859.0645.1861.068.2828.0108.1986.0036.3991.0036.5995.0018.0304.0018.0591.0018.0931z"/></g></svg>

<svg width="40" height="40" viewBox="0 0 40 40" fill="none" xmlns="http://www.w3.org/2000/svg">
<rect width="40" height="40" rx="20" fill="white"/>
<g clip-path="url(#clip0)">
<path fill-rule="evenodd" clip-rule="evenodd" d="M11.4595 21.2914C11.5025 21.6135 11.5955 21.9017 11.7602 22.1612C12.1468 22.7715 12.7087 23.0614 13.4282 23.056C14.0188 23.0524 14.5253 22.8377 14.962 22.4439C15.1911 22.2363 15.5132 22.2757 15.6743 22.5245C15.7906 22.7034 15.7674 22.92 15.6063 23.0811C15.1177 23.5697 14.536 23.8739 13.847 23.958C13.396 24.0135 12.9468 24.0028 12.5083 23.8668C11.5096 23.5571 10.8457 22.8949 10.5504 21.8999C10.2049 20.7312 10.3893 19.6448 11.2036 18.7106C11.7566 18.0788 12.4725 17.7782 13.3155 17.7925C14.0421 17.805 14.6756 18.052 15.1857 18.58C15.6099 19.0184 15.8443 19.5536 15.9517 20.1477C15.9929 20.3732 16.0108 20.6023 16.0215 20.8314C16.034 21.0838 15.8372 21.2806 15.5848 21.2932C15.549 21.2949 15.5132 21.2932 15.4774 21.2932H11.5866C11.5508 21.2914 11.5132 21.2914 11.4595 21.2914ZM14.953 20.3911C14.9262 20.1585 14.86 19.9437 14.7723 19.7343C14.2497 18.5048 12.8913 18.4726 12.1933 19.0721C11.8264 19.3871 11.6099 19.7898 11.5025 20.2551C11.4917 20.2981 11.4882 20.341 11.4792 20.3911H14.953Z" fill="#007ADD"/>
<path fill-rule="evenodd" clip-rule="evenodd" d="M23.1924 20.8548C23.1942 19.2727 24.4201 17.7855 26.2957 17.7891C28.0443 17.7909 29.3848 19.1457 29.3812 20.9067C29.3776 22.6374 28.0103 23.9868 26.2582 23.9886C24.5705 23.9886 23.1888 22.5783 23.1924 20.8548ZM28.3217 20.9372C28.3127 20.3233 28.1356 19.8114 27.7472 19.3783C26.9544 18.4924 25.5065 18.5264 24.7459 19.4392C24.1123 20.1998 24.0676 21.5421 24.8031 22.3689C25.4582 23.1063 26.6358 23.2584 27.4376 22.6857C28.0479 22.249 28.3038 21.6316 28.3217 20.9372Z" fill="#007ADD"/>
<path fill-rule="evenodd" clip-rule="evenodd" d="M18.0582 18.6588C18.171 18.5514 18.2622 18.4601 18.3571 18.3742C18.8153 17.9554 19.3629 17.7836 19.9732 17.789C20.4546 17.7944 20.9074 17.9017 21.3083 18.1809C21.8059 18.5281 22.0761 19.0203 22.1817 19.6055C22.2157 19.7953 22.2336 19.9903 22.2354 20.1836C22.2408 21.2789 22.2372 22.3724 22.2372 23.4677C22.2372 23.6771 22.1047 23.8758 21.9097 23.9474C21.7056 24.0225 21.5141 23.9921 21.3566 23.8346C21.2457 23.7255 21.1974 23.5876 21.1974 23.4302C21.1992 22.4154 21.2027 21.4024 21.1938 20.3876C21.192 20.1872 21.1634 19.9814 21.115 19.7881C20.9629 19.1957 20.5388 18.836 19.932 18.7662C19.5007 18.7161 19.0909 18.7841 18.7311 19.0454C18.2533 19.3926 18.0618 19.8865 18.06 20.4592C18.0564 21.4579 18.06 22.4583 18.0582 23.457C18.0582 23.84 17.686 24.0888 17.3316 23.9438C17.1437 23.8668 17.0166 23.6628 17.0166 23.4337V21.8498V18.3152C17.0166 18.1129 17.1097 17.959 17.2815 17.8588C17.4587 17.755 17.643 17.7604 17.8166 17.8695C17.9651 17.9644 18.0546 18.1022 18.0582 18.2847C18.06 18.4029 18.0582 18.5174 18.0582 18.6588Z" fill="#007ADD"/>
<path fill-rule="evenodd" clip-rule="evenodd" d="M8.06052 17.911H8.17685H9.46544C9.65873 17.911 9.81622 17.9736 9.91644 18.1472C10.0829 18.4389 9.91287 18.7915 9.57998 18.8416C9.52808 18.8488 9.4726 18.8506 9.41891 18.8506H8.17506H8.06052V18.9508V22.1454C8.06052 22.3602 8.09452 22.566 8.23949 22.7414C8.35761 22.8846 8.51689 22.9454 8.69049 22.9723C8.95 23.0134 9.20772 22.9919 9.46007 22.9132C9.69989 22.8362 9.93613 22.9436 10.0167 23.1673C10.099 23.3946 9.98266 23.6183 9.76074 23.7257C9.46007 23.8725 9.14508 23.9369 8.81219 23.9548C7.94955 23.9978 7.17461 23.3714 7.04396 22.5159C7.02606 22.4049 7.0207 22.2904 7.0207 22.1776C7.01891 21.1128 7.01891 20.0479 7.01891 18.983V18.8595C6.97953 18.8577 6.94732 18.8541 6.91689 18.8541C6.72002 18.8541 6.52316 18.8577 6.32629 18.8524C6.00414 18.8434 5.79654 18.6018 5.84486 18.2975C5.87886 18.0828 6.07394 17.9217 6.31913 17.9145C6.51242 17.9092 6.7075 17.9128 6.90079 17.9128C7.01891 17.9128 7.01891 17.9128 7.01891 17.7893V16.5454C7.01891 16.2412 7.23904 16.0085 7.53255 16.0049C7.82606 16.0013 8.05694 16.2358 8.05873 16.5436C8.06052 16.9606 8.05873 17.3794 8.05873 17.7964C8.06052 17.8304 8.06052 17.8662 8.06052 17.911Z" fill="#007ADD"/>
<path fill-rule="evenodd" clip-rule="evenodd" d="M31.4612 19.0441C31.6151 18.8687 31.7511 18.6951 31.9086 18.5412C32.2684 18.1904 32.6907 17.9452 33.1883 17.8468C33.3386 17.8163 33.4961 17.8092 33.65 17.8163C33.9417 17.8324 34.1601 18.0758 34.1601 18.3622C34.1601 18.645 33.9382 18.8848 33.65 18.9116C33.437 18.9313 33.2205 18.9349 33.0111 18.9796C32.4366 19.1031 32.0303 19.4503 31.769 19.9711C31.54 20.4257 31.463 20.9161 31.4612 21.419C31.4576 22.0902 31.4612 22.7613 31.4612 23.4324C31.4612 23.7438 31.2321 23.9855 30.9368 23.9837C30.6397 23.9819 30.416 23.751 30.416 23.4396V18.3049C30.416 18.0723 30.5807 17.8611 30.8026 17.8056C31.046 17.7447 31.2822 17.845 31.3878 18.0687C31.429 18.1546 31.4523 18.2548 31.4558 18.3515C31.4666 18.5501 31.4594 18.7506 31.4594 18.951C31.4612 18.9814 31.4612 19.0101 31.4612 19.0441Z" fill="#007ADD"/>
</g>
<defs>
<clipPath id="clip0">
<rect width="28.5714" height="8" fill="white" transform="translate(5.71387 16)"/>
</clipPath>
</defs>
</svg>
